X:96
T:Spanish Gipsy,The. (p)1651.PLFD.096
M:6/4
L:1/4
Q:3/4=120
S:Playford, Dancing Master,1st Ed.,1651.
O:England
H:1651.
Z:Chris Partington.
K:G
A|d>efd>ef|d3-d2A|d>efd>ef|d3-d2e|
f2ed2c|B3A3|A2FA2G|F6|
|F2GA2A|B2Ad2D|F2GA>GF|E2DD3|
F2GA2A|B2Ad2D|F2GA>GF|E2DD2:|
